X:0422
M:6/8
L:1/8
Q:3/8=120
K:G
  d2B g2d| e2c g2e| dec BcA| G2G G2:|
z|DFA cAF| GBd dBG| DFA cAF| GBd dBG|\
  ece ege| dBd dgd| edc BcA| G2G G2:|

